X:149
T:Countess of Breadalbane
R:Strathspey
B:The Athole Collection
M:C
L:1/8
K:B_
F|~B>cBF D/E/F/D/ B>D|E>F G/F/E/D/ E>Cc>G|~B<F G>B F>BE>g|
f>B e/d/c/B/ F<B~B:|
g|f2 e/d/c/B/ f>Bb>B|e>f e/d/c/B/ A<c c>g|f2 e/d/c/B/ f>Bb>B|
fg|f2 e/d/c/B/ fd|e>f e/d/c/B/ A<c c>d|
~B>cB>F D/E/F/D/ B,>g|f>B e/d/c/B/ F<B~B||
